!!!COM: Scriabin, Alexander
!!!OTL@@FR: Poème en ré bémol majeur
!!!OTL@@EN: Poem in Db Major
!!!OPS: 41
!!!ODT: 1903
!!!AGN: Poem
**kern	**kern	**dynam
*staff2	*staff1	*staff1/2
*Ipiano	*Ipiano	*
*clefF4	*clefG2	*
*k[b-e-a-d-g-]	*k[b-e-a-d-g-]	*
*D-:	*D-:	*
*M6/8	*M6/8	*
=1	=1	=1
*^	*	*
*	*^	*	*
8rc	16rEE	4.AAn/	4.r	.
.	[16A--	.	.	.
16e-LL	4A--]	.	.	.
16c	.	.	.	.
16e-	.	.	.	.
16d-JJ	.	.	.	.
8rc	16rEE	4.An\	4.r	.
.	[16d-	.	.	.
16a-XLL	4d-]	.	.	.
16a--JJ	.	.	.	.
16dd-	.	.	.	.
16rc	.	.	.	.
=2	=2	=2	=2	=2
8rc	16rEE	4.AAn/	4.r	.
.	[16A--	.	.	.
16e-LL	4A--]	.	.	.
16c	.	.	.	.
16e-	.	.	.	.
16d-JJ	.	.	.	.
8rc	16rEE	4.An\	4ff	.
.	[16d-	.	.	.
16a-XLL	4d-]	.	.	.
16a--	.	.	.	.
16dd-	.	.	8ff	.
16a--JJ	.	.	.	.
=3	=3	=3	=3	=3
.	.	.	16qqdd-/LL	.
.	.	.	16qqff/JJ	.
8rc	16rEE	4.BB-/	4.ddd-	.
.	[16A--	.	.	.
16gnLL	4A--]	.	.	.
16en	.	.	.	.
16g	.	.	.	.
16fJJ	.	.	.	.
8rc	16rEE	4.B-\	4ff	.
.	[16d-	.	.	.
16a-XLL	4d-]	.	.	.
16a--	.	.	.	.
16dd-	.	.	8gg-X	.
16g-XJJ	.	.	.	.
=4	=4	=4	=4	=4
.	.	.	8qb-/	.
8rc	16rEE	4.DDn/	4.bb-	.
.	[16G-	.	.	.
16d-XLL	4G-]	.	.	.
16B-	.	.	.	.
16d-	.	.	.	.
16cJJ	.	.	.	.
8rc	16rEE	4.Dn\	4.b-	.
.	[16c	.	.	.
16a-LL	4c]	.	.	.
16f	.	.	.	.
16a-	.	.	.	.
16g-JJ	.	.	.	.
*v	*v	*v	*	*
=5	=5	=5
.	8qb-/	.
*^	*	*
*	*^	*	*
*	*	*^	*	*
8rc	16rEE	4.r	2.AA-\	[4.ff	.
.	[16G-	.	.	.	.
16d-LL	4G-]	.	.	.	.
16B-	.	.	.	.	.
16d-	.	.	.	.	.
16cJJ	.	.	.	.	.
8rc	16rEE	4.G-\	.	4ff]	.
.	[16c	.	.	.	.
16b-LL	4c]	.	.	.	.
[16a-	.	.	.	.	.
16a-]	.	.	.	8ee-	.
16a-JJ	.	.	.	.	.
*	*	*v	*v	*	*
=6	=6	=6	=6	=6
8rc	16rEE	8DD-/ 8AA- 8F	16d- 16a- 16dd-	.
.	[16d-	.	16r	.
16g-LL	4A- 4d-]	8DD-/L 8D-	4r	.
16en	.	.	.	.
16g-	.	8CC-X/J 8C-X	.	.
16fJJ	.	.	.	.
8rc	16rEE	8BBB-/L 8BB-	8r	.
.	[16A-	.	.	.
16e-XLL	4A-]	8FF/ 8F	8ccnL	.
16c	.	.	.	.
16e-	.	8BBB-/J 8BB-	8b-J	.
16dnJJ	.	.	.	.
*	*v	*v	*	*
=7	=7	=7	=7
16e--LL	8GGG-L 8GG-	8b--L	.
16E--JJ	.	.	.
16c-XLL	8EE-- 8E--	8g-	.
16A-	.	.	.
16c-	8GGG-J 8GG-	8e-J	.
16B--JJ	.	.	.
16rc	8AAA-L 8AA-	16d-LL	.
16E-X	.	16cnJJ	.
16A-LL	8CC 8C	8.fL	.
16F	.	.	.
16A-	8AAA-J 8AA-	.	.
16G-JJ	.	16e-Jk	.
=8	=8	=8	=8
*	*^	*	*
8rc	16rEE	4.C#X/	4.r	.
.	[16c-X	.	.	.
16gnLL	4c-]	.	.	.
16en	.	.	.	.
16g	.	.	.	.
16fJJ	.	.	.	.
8rc	16rEE	4.c#X\	4aan	.
.	[16f	.	.	.
16ccnLL	4f]	.	.	.
16cc-X	.	.	.	.
16ff	.	.	8aa	.
16cc-JJ	.	.	.	.
=9	=9	=9	=9	=9
.	.	.	16qqff/LL	.
.	.	.	16qqaan/JJ	.
8rc	16rEE	4.Dn\	4.fff	.
.	[16c-X	.	.	.
16bnLL	4c-]	.	.	.
16g#X	.	.	.	.
16b	.	.	.	.
16anJJ	.	.	.	.
8rc	16rEE	4.dn\	4aa	.
.	[16f	.	.	.
16ccnLL	4f]	.	.	.
16cc-X	.	.	.	.
16ff	.	.	8bb-X	.
16b-XJJ	.	.	.	.
=10	=10	=10	=10	=10
.	.	.	8qddn/	.
8rc	16rEE	4.FF#X/	4.dddn	.
.	[16B-	.	.	.
16fnLL	4B-]	.	.	.
16dn	.	.	.	.
16f	.	.	.	.
16enJJ	.	.	.	.
8rc	16rEE	4.F#X\	4.dd	.
.	[16e	.	.	.
16ccLL	4e]	.	.	.
16an	.	.	.	.
16cc	.	.	.	.
16b-JJ	.	.	.	.
*v	*v	*v	*	*
=11	=11	=11
.	8qddn/	.
*^	*	*
*	*^	*	*
*	*	*^	*	*
8rc	16rEE	4.r	2.C/	[4.aan	.
.	[16B-	.	.	.	.
16fLL	4B-]	.	.	.	.
16dn	.	.	.	.	.
16f	.	.	.	.	.
16enJJ	.	.	.	.	.
8rc	16rEE	4.B-\	.	4aa]	.
.	[16e	.	.	.	.
16dd-LL	4e]	.	.	.	.
[16cc	.	.	.	.	.
16cc]	.	.	.	8ggn	.
16ccJJ	.	.	.	.	.
*	*	*v	*v	*	*
=12	=12	=12	=12	=12
8rc	16rEE	16FF/ 16C 16An	16f 16cc 16ff	.
.	[16f	16r	16r	.
16b-LL	4c 4f]	8FF/L 8F	4r	.
16g#X	.	.	.	.
16b-	.	8EE-X/J 8E-X	.	.
16anJJ	.	.	.	.
8rc	16rEE	8DDn/L 8Dn	8r	.
.	[16c	.	.	.
16gnLL	4c]	8AAn/ 8A	8eenL	.
16en	.	.	.	.
16g	.	8DD/J 8D	8ddnJ	.
16f#XJJ	.	.	.	.
*	*v	*v	*	*
=13	=13	=13	=13
16d-XLL 16g-X	8BBB-L 8BB-	8dd-XL	.
16G-JJ	.	.	.
16e-LL	8GG- 8G-	8b-	.
16c	.	.	.
16e-	8BBB-J 8BB-	8g-J	.
16d-JJ	.	.	.
16rc	8CCL 8C	16fLL	.
16Gn	.	16enJJ	.
16cLL	8EEn 8En	8.anL	.
16An	.	.	.
16c	8CCJ 8C	.	.
16B-JJ	.	16gnJk	.
=14	=14	=14	=14
*	*^	*	*
8rc	16rEE	4.EE#X/	4.r	.
.	[16E-X	.	.	.
16BnLL	4E-]	.	.	.
16G#X	.	.	.	.
16B	.	.	.	.
16AnJJ	.	.	.	.
.	.	.	8qan/	.
8rc	16rEE	4.E#X\	4cc#X	.
.	[16A	.	.	.
16enLL	4A]	.	.	.
16e-X	.	.	.	.
16an	.	.	8cc#	.
16e-JJ	.	.	.	.
=15	=15	=15	=15	=15
.	.	.	16qqan/LL	.
.	.	.	16qqcc#X/JJ	.
8rc	16rEE	4.FF#X/	4.aan	.
.	[16E-X	.	.	.
16d#XLL	4E-]	.	.	.
16B#X	.	.	.	.
16d#	.	.	.	.
16c#XJJ	.	.	.	.
8rc	16rEE	4.F#X\	4cc#	.
.	[16An	.	.	.
16enLL	4A]	.	.	.
16e-X	.	.	.	.
16an	.	.	8ddn	.
16dnJJ	.	.	.	.
=16	=16	=16	=16	=16
8rc	16rEE	4.FF##X/	4.ffn	.
.	[16Fn	.	.	.
16c#XLL	4F]	.	.	.
16A#X	.	.	.	.
16c#	.	.	.	.
16BnJJ	.	.	.	.
8rc	16rEE	4.F##X\	4ddn	.
.	[16B	.	.	.
16f#XLL	4B]	.	.	.
16fn	.	.	.	.
16bn	.	.	8dd#X	.
16e#XJJ	.	.	.	.
=17	=17	=17	=17	=17
.	.	.	16qqbn/LL	.
.	.	.	16qqdd#X/JJ	.
8rc	16rEE	4.GG#X/	4.bbn	.
.	[16Fn	.	.	.
16e#XLL	4F]	.	.	.
16c##X	.	.	.	.
16e#	.	.	.	.
16d#XJJ	.	.	.	.
8rc	16rEE	4.G#X\	4dd#	.
.	[16Bn	.	.	.
16f#XLL	4B]	.	.	.
16fn	.	.	.	.
16bn	.	.	8een	.
16enJJ	.	.	.	.
=18	=18	=18	=18	=18
8rc	16rEE	4.GG#X/	4.ff#X	.
.	[16En	.	.	.
16dnLL	4E]	.	.	.
16A#X	.	.	.	.
16c#X	.	.	.	.
16BnJJ	.	.	.	.
8rc	16rEE	4.E\	8a#XL	.
.	[16d	.	.	.
16anLL	4d]	.	8bn	.
16f#X	.	.	.	.
16a	.	.	8b#XJ	.
16g#XJJ	.	.	.	.
=19	=19	=19	=19	=19
.	.	[8qEn/	.	.
8rc	16rEE	4.AAn/ 4.E]	[4.cc#X	.
.	[16c#X	.	.	.
16anLL	4c#]	.	.	.
16f#X	.	.	.	.
16a	.	.	.	.
16g#XJJ	.	.	.	.
8rc	16rEE	4.EE-/ 4.E-X	8cc#L]	.
.	[16d-X	.	.	.
16a-XLL	4d-]	.	8.cccn	.
16fn	.	.	.	.
16a-	.	.	.	.
16gnJJ	.	.	16bb-Jk	.
=20	=20	=20	=20	=20
8rc	16rEE	4.AA-/ 4.E-	8aa-L	.
.	[16d-	.	.	.
16g-XLL	4d-]	.	8.gg-	.
16f	.	.	.	.
16a-	.	.	.	.
16g-JJ	.	.	16bb-Jk	.
8rc	16rEE	4.AA-/	[4.ff	.
.	[16G-	.	.	.
16e-LL	4G-]	.	.	.
16c	.	.	.	.
16e-	.	.	.	.
16d-JJ	.	.	.	.
=21	=21	=21	=21	=21
*	*	*^	*	*
8rc	16rEE	4.r	2.AA-/	4.ff_	.
.	[16G-	.	.	.	.
16d-LL	4G-]	.	.	.	.
16B-	.	.	.	.	.
16d-	.	.	.	.	.
16cJJ	.	.	.	.	.
8rc	16rEE	4.G-\	.	4ff]	.
.	[16c	.	.	.	.
16b-LL	4c]	.	.	.	.
[16a-	.	.	.	.	.
16a-]	.	.	.	8ee-	.
16a-JJ	.	.	.	.	.
=22	=22	=22	=22	=22	=22
8rc	16rEE	4.r	2.DD-/	4.dd-	.
.	[16AA-	.	.	.	.
16G-LL	4AA-]	.	.	.	.
16E-	.	.	.	.	.
16G-	.	.	.	.	.
16FJJ	.	.	.	.	.
8rc	16rEE	4.AA-/	.	4f	.
.	[16D-	.	.	.	.
16B-LL	4D-]	.	.	.	.
16Gn	.	.	.	.	.
16B-	.	.	.	8f	.
16A-JJ	.	.	.	.	.
=23	=23	=23	=23	=23	=23
8rc	16rEE	4.r	2.DD-/	4.d- 4.dd-	.
.	[16GG-X	.	.	.	.
16G-LL	4GG-]	.	.	.	.
16E-	.	.	.	.	.
16G-	.	.	.	.	.
16FJJ	.	.	.	.	.
8rc	16rEE	4.GG-/	.	4f	.
.	[16F	.	.	.	.
16cLL	8FL]	.	.	.	.
16A-	.	.	.	.	.
16c	8E-J	.	.	8g-	.
16B-JJ	.	.	.	.	.
=24	=24	=24	=24	=24	=24
8rc	16rEE	4.r	2.DD-/	4.b-	.
.	[16GG-	.	.	.	.
16FLL	4GG-]	.	.	.	.
16D-	.	.	.	.	.
16F	.	.	.	.	.
16E-JJ	.	.	.	.	.
8rc	16rEE	4.GG-/	.	4.B-	.
.	[16E-	.	.	.	.
16e-LL	4E-]	.	.	.	.
16c	.	.	.	.	.
16e-	.	.	.	.	.
16d-JJ	.	.	.	.	.
=25	=25	=25	=25	=25	=25
8rc	4.rEE	16r	2.DD-/	[4.f	.
.	.	[16AA-/	.	.	.
16A-LL	.	4AA-/_	.	.	.
16F	.	.	.	.	.
16A-	.	.	.	.	.
16G-JJ	.	.	.	.	.
8rc	16rEE	4.AA-/]	.	4f]	.
.	[16G-	.	.	.	.
16d-LL	4G-]	.	.	.	.
16B-	.	.	.	.	.
16d-	.	.	.	8e-	.
16cJJ	.	.	.	.	.
*	*	*v	*v	*	*
=26	=26	=26	=26	=26
8rc	16rEE	2.DD-/ 2.AA-	2.r	.
.	[16F	.	.	.
16e-LL	4F]	.	.	.
16c	.	.	.	.
16e-	.	.	.	.
16d-JJ	.	.	.	.
8rc	16rEE	.	.	.
.	[16F	.	.	.
16e-LL	4F]	.	.	.
16c	.	.	.	.
16e-	.	.	.	.
16d-JJ	.	.	.	.
=27	=27	=27	=27	=27
*	*	*^	*	*
8rc	16rEE	4.D-\	2.DD-/	2.r	.
.	[16A-	.	.	.	.
16g-LL	4A-]	.	.	.	.
16en	.	.	.	.	.
16g-	.	.	.	.	.
16fJJ	.	.	.	.	.
8rc	16rEE	4.AA-/ 4.F	.	.	.
.	[16d-	.	.	.	.
16b-LL	4d-]	.	.	.	.
16gn	.	.	.	.	.
16b-	.	.	.	.	.
16a-JJ	.	.	.	.	.
*v	*v	*v	*v	*	*
=28||	=28||	=28||
*k[f#c#g#]	*k[f#c#g#]	*
*M3/4	*M3/4	*
8c#L	[4g#	.
8D#X	.	.
8AA	12g#L]	.
.	12cc#	.
8DD#XJ	.	.
.	12aJ	.
8AAA	12g#L	.
.	12e#X	.
8r	.	.
.	24r	.
.	24f#Jk	.
=29	=29	=29
*	*^	*
8c#L	2f# 2dd	[4c#	.
8Dn	.	.	.
8AA	.	12c#L]	.
.	.	12f#	.
8DDnJ	.	.	.
.	.	12dJ	.
8AAA	[4f#	12c#L	.
.	.	12A#X	.
8r	.	.	.
.	.	12BJ	.
=30	=30	=30	=30
*	*^	*^	*
8dL	4raa	4rc	12f#/L]	2d\	.
.	.	.	12f##X/	.	.
8E	.	.	.	.	.
.	.	.	[12g#/J	.	.
8AA	4raa	12ddL	4g#/]	.	.
.	.	12b	.	.	.
8EEJ	.	.	.	.	.
.	.	[12a#XJ	.	.	.
8AAA	6gg#	6a#]	4g#/	4d\	.
8r	.	.	.	.	.
.	12ff#X	12b	.	.	.
*	*	*v	*v	*v	*
=31	=31	=31	=31
8c#L	12ffnL	2an 2cc#	.
.	12dd#X	.	.
8E	.	.	.
.	12eeJ	.	.
8AA	12ffL	.	.
.	12ee	.	.
8EEJ	.	.	.
.	12cc#J	.	.
8AAA	12bL	4rc	.
.	12a	.	.
8r	.	.	.
.	12g#J	.	.
*	*v	*v	*
=32	=32	=32
8c#L	[4g#	.
8D#X	.	.
8AA	12g#L]	.
.	12cc#	.
8DD#XJ	.	.
.	12aJ	.
8AAA	12g#L	.
.	12e#X	.
8r	.	.
.	24r	.
.	24f#Jk	.
=33	=33	=33
*	*^	*
8c#L	2f# 2dd	[4c#	.
8Dn	.	.	.
8AA	.	12c#L]	.
.	.	12f#	.
8DDnJ	.	.	.
.	.	12dJ	.
8AAA	[4f#	12c#L	.
.	.	12A#X	.
8r	.	.	.
.	.	12BJ	.
=34	=34	=34	=34
8dL	12f#L]	4r	.
.	12f##X	.	.
8E	.	.	.
.	12g#J	.	.
8AA	12ddL	4r	.
.	12a	.	.
8EEJ	.	.	.
.	12a#XJ	.	.
8AAA	12ff#XL	4d 4g#	.
.	12cc#	.	.
8r	.	.	.
.	24r	.	.
.	24bJk	.	.
*	*v	*v	*
=35	=35	=35
8c#L	2b	.
8E	.	.
8AA	.	.
8EEJ	.	.
8AAA	4a	.
8r	.	.
=36	=36	=36
8aL	[4dd	.
8e-X	.	.
8Fn	12ddL]	.
.	12ggn	.
8A	.	.
.	12ee-XJ	.
8E-X	12ddL	.
.	12b	.
8FFnJ	.	.
.	12ccnJ	.
=37	=37	=37
8a-XL	6aa-X	.
8d	.	.
.	12ggn	.
8B-X	[4cc-X	.
8A-X	.	.
8D	6cc-]	.
8BB-XJ	.	.
.	12ccn	.
=38	=38	=38
8g#XL	[4cc#X	.
8d	.	.
8E	12cc#L]	.
.	12ff#	.
8G#	.	.
.	12ddJ	.
8D	12cc#L	.
.	12a#X	.
8EEJ	.	.
.	12bJ	.
=39	=39	=39
8gnL	6ggn	.
8c#	.	.
.	12ff#	.
8A	[4b-X	.
8Gn	.	.
8C#	6b-]	.
8AAJ	.	.
.	12b-	.
=40	=40	=40
8f#L	[4b-X	.
8d	.	.
8F#	12b-L]	.
.	12ff#	.
8D	.	.
.	12b-J	.
8F#	12aL	.
.	12g#	.
8c#J	.	.
.	12aJ	.
=41	=41	=41
8fnL	2cc#	.
8A	.	.
8D#X	.	.
8A	.	.
8c#	4fn	.
8AJ	.	.
=42	=42	=42
*	*^	*
8dL	12f#XL	4rc	.
.	12f##X	.	.
8G#	.	.	.
.	12g#J	.	.
8E	12ddL	4rc	.
.	12a	.	.
8G#	.	.	.
.	12a#XJ	.	.
8D	12ff#XL	4d 4g#	.
.	12.cc#	.	.
8EEJ	.	.	.
.	24bJk	.	.
=43	=43	=43	=43
8c#L	[4b	2.e	.
8G#	.	.	.
8E	8bL]	.	.
8A	[8aJ	.	.
8C#	8aL]	.	.
8AAJ	8g#J	.	.
*	*v	*v	*
=44	=44	=44
4E-X 4d-X	4gn [4ccn	.
4r	12ccL]	.
.	12ffn	.
.	12dd-XJ	.
4r	12ccL	.
.	12a	.
.	12b-XJ	.
=45	=45	=45
8GnL 8c#X	12bnL	.
.	12ee	.
8AAJ	.	.
.	12cc#XJ	.
8F#L 8d	12bL	.
.	12g#	.
8DJ	.	.
.	12aJ	.
8AL 8c#	6cc#	.
8D#XJ	.	.
.	12fn	.
=46	=46	=46
*	*^	*
8dL	12f#XL	4rc	.
.	12f##X	.	.
8G#	.	.	.
.	12g#J	.	.
8E	12ddL	4rc	.
.	12a	.	.
8G#	.	.	.
.	12a#XJ	.	.
8D	12ff#XL	4d 4g#	.
.	12.cc#	.	.
8EEJ	.	.	.
.	24bJk	.	.
=47	=47	=47	=47
8c#L	[4b	2.e	.
8G#	.	.	.
8E	8bL]	.	.
8A	[8aJ	.	.
8C#	12aL]	.	.
.	12g#	.	.
8AAJ	.	.	.
.	12gnJ	.	.
*	*v	*v	*
=48	=48	=48
8c#L	[4f#	.
8Gn	.	.
8AA	12f#L]	.
.	12b	.
8AAJ	.	.
.	12gnJ	.
8AAA	12f#L	.
.	12d#X	.
8r	.	.
.	12eJ	.
=49	=49	=49
8cnL	6ccn	.
8Gn	.	.
.	12b	.
8AA	[4e	.
8AAJ	.	.
8AAA	6e]	.
8r	.	.
.	12e	.
=50	=50	=50
8BL	[4e	.
8Fn	.	.
8AA	12eL]	.
.	12a	.
8AAJ	.	.
.	12fnJ	.
8AAA	12eL	.
.	12c#	.
8r	.	.
.	12dJ	.
=51	=51	=51
8B-XL	6b-X	.
8Fn	.	.
.	12a	.
8AA	4d	.
8AAJ	.	.
8AAA	6r	.
8r	.	.
.	12a	.
=52	=52	=52
*	*^	*
*	*	*^	*
8BnL	4raa	12aL	2.d/	.
.	.	12f##X	.	.
8E	.	.	.	.
.	.	[12g#J	.	.
8AA	12ddL	2g#]	.	.
.	12a	.	.	.
8AAJ	.	.	.	.
.	12a#XJ	.	.	.
8AAA	[4ff#X	.	.	.
8r	.	.	.	.
*	*	*v	*v	*
=53	=53	=53	=53
8dL	4ff#]	2.g#	.
8E	.	.	.
8AA	4.cc#	.	.
8AAJ	.	.	.
8AAA	.	.	.
8r	8b	.	.
=54	=54	=54	=54
8c#L	[2.a	2.a	.
8D#X	.	.	.
8AA	.	.	.
8AA	.	.	.
8AAA	.	.	.
8AAJ	.	.	.
*	*v	*v	*
=55	=55	=55
8AAL	2.a]	.
8D#XJ	.	.
4c#	.	.
4r	.	.
=56||	=56||	=56||
*k[b-e-a-d-g-]	*k[b-e-a-d-g-]	*
*M6/8	*M6/8	*
*^	*	*
*	*^	*	*
8rc	24rEE	4.AAn/	4.r	.
.	24G-XLL	.	.	.
.	[24A--JJ	.	.	.
24e-LL	4A--]	.	.	.
24c-X	.	.	.	.
24cn	.	.	.	.
24e-	.	.	.	.
24e--	.	.	.	.
24d-JJ	.	.	.	.
8rc	24rEE	4.An\	4ff	.
.	24cLL	.	.	.
.	[24d-JJ	.	.	.
24a-XLL	4d-]	.	.	.
24gn	.	.	.	.
24a-	.	.	.	.
24g	.	.	8ff	.
24dd-	.	.	.	.
24a--JJ	.	.	.	.
=57	=57	=57	=57	=57
.	.	.	16qqdd-/LL	.
.	.	.	16qqff/JJ	.
8rc	24rEE	4.BB-/	4.ddd-	.
.	24G-LL	.	.	.
.	[24A--JJ	.	.	.
24gnLL	4A--]	.	.	.
24e-	.	.	.	.
24en	.	.	.	.
24g	.	.	.	.
24g-X	.	.	.	.
24fJJ	.	.	.	.
8rc	24rEE	4.B-\	[4ff	.
.	24cLL	.	.	.
.	[24d-JJ	.	.	.
24a-XLL	4d-]	.	.	.
24gn	.	.	.	.
24a-	.	.	.	.
24a--	.	.	12ff]	.
24dd-	.	.	.	.
24g-XJJ	.	.	24gg-	.
=58	=58	=58	=58	=58
.	.	.	8qb-/	.
8rc	24rEE	4.DDn/	4.bb-	.
.	24FLL	.	.	.
.	[24G-JJ	.	.	.
24d-LL	4G-]	.	.	.
24An	.	.	.	.
24B-	.	.	.	.
24d-	.	.	.	.
24c-X	.	.	.	.
24cnJJ	.	.	.	.
8rc	24rEE	4.Dn\	4.b-	.
.	24c-XLL	.	.	.
.	[24cnJJ	.	.	.
24a-XLL	4c]	.	.	.
24en	.	.	.	.
24f	.	.	.	.
24a-	.	.	.	.
24a--	.	.	.	.
24g-JJ	.	.	.	.
*v	*v	*v	*	*
=59	=59	=59
.	8qb-/	.
*^	*	*
*	*^	*	*
*	*	*^	*	*
8rc	24rEE	4.r	2.AA-/	[4.ff	.
.	24FLL	.	.	.	.
.	[24G-JJ	.	.	.	.
24d-LL	4G-]	.	.	.	.
24An	.	.	.	.	.
24B-	.	.	.	.	.
24d-	.	.	.	.	.
24c-X	.	.	.	.	.
24cnJJ	.	.	.	.	.
8rc	24rEE	4.G-\	.	4ff]	.
.	24c-XLL	.	.	.	.
.	[24cnJJ	.	.	.	.
24b-LL	4c]	.	.	.	.
24an	.	.	.	.	.
24b-	.	.	.	.	.
24b--	.	.	.	8ee-	.
24.a-X	.	.	.	.	.
48a-JJk	.	.	.	.	.
*	*	*v	*v	*	*
=60	=60	=60	=60	=60
8rc	24rEE	8DD-/ 8AA- 8F	16d- 16a- 16dd-	.
.	24cLL	.	.	.
.	.	.	16r	.
.	[24d-JJ	.	.	.
24g-LL	4A- 4d-]	8DD-/L 8D-	4r	.
24e-	.	.	.	.
24en	.	.	.	.
24g-	.	8CC-X/J 8C-X	.	.
24e	.	.	.	.
24fJJ	.	.	.	.
8rc	24rEE	8BBB-/L 8BB-	8r	.
.	24GnLL	.	.	.
.	[24A-JJ	.	.	.
24e-XLL	8A-]	8FF/ 8F	8ccnL	.
24c	.	.	.	.
[24e-	.	.	.	.
24e-]	8A-	8BBB-/J 8BB-	8b-J	.
24d-	.	.	.	.
24dnJJ	.	.	.	.
*	*v	*v	*	*
=61	=61	=61	=61
24B--LL 24e--	8GGG-L 8GG-	8b--L	.
24D-	.	.	.
24E--	.	.	.
24c-X	8EE-- 8E--	8g-	.
24Gn	.	.	.
24A-	.	.	.
24c-	8GGG-XJ 8GG-X	8e-J	.
24c--	.	.	.
24B--JJ	.	.	.
24rc	8AAA-L 8AA-	16d-LL	.
24DnLL	.	.	.
.	.	16cnJJ	.
24E-XJJ	.	.	.
24A-LL	8CC 8C	8.fL	.
24F	.	.	.
[24A-	.	.	.
24A-]	8AAA-J 8AA-	.	.
24G	.	.	.
.	.	16e-XJk	.
24G-XJJ	.	.	.
=62	=62	=62	=62
*	*^	*	*
8rc	24rEE	4.C#X/	4.r	.
.	24B-LL	.	.	.
.	[24c-XJJ	.	.	.
24gnLL	4c-]	.	.	.
24e-	.	.	.	.
24en	.	.	.	.
24g	.	.	.	.
24g-X	.	.	.	.
24fJJ	.	.	.	.
8rc	24rEE	4.c#X\	4aan	.
.	24eLL	.	.	.
.	[24fJJ	.	.	.
24ccnLL	4f]	.	.	.
24bn	.	.	.	.
24cc	.	.	.	.
24b	.	.	8aa	.
24ff	.	.	.	.
24cc-XJJ	.	.	.	.
=63	=63	=63	=63	=63
.	.	.	16qqff/LL	.
.	.	.	16qqaan/JJ	.
8rc	24rEE	4.Dn\	4.fff	.
.	24B-LL	.	.	.
.	[24c-XJJ	.	.	.
24bnLL	4c-]	.	.	.
24gn	.	.	.	.
24g#X	.	.	.	.
24b	.	.	.	.
24b-X	.	.	.	.
24anJJ	.	.	.	.
8rc	24rEE	4.dn\	[4aa	.
.	24enLL	.	.	.
.	[24fJJ	.	.	.
24ccnLL	4f]	.	.	.
24bn	.	.	.	.
24cc	.	.	.	.
24cc-X	.	.	12aa]	.
24ff	.	.	.	.
24b-XJJ	.	.	24bb-	.
=64	=64	=64	=64	=64
.	.	.	8qddn/	.
8rc	24rEE	4.FF#X/	4.dddn	.
.	24AnLL	.	.	.
.	[24B-JJ	.	.	.
24fnLL	4B-]	.	.	.
24c#X	.	.	.	.
24dn	.	.	.	.
24f	.	.	.	.
24e-	.	.	.	.
24enJJ	.	.	.	.
8rc	24rEE	4.F#X\	4.dd	.
.	24e-XLL	.	.	.
.	[24enJJ	.	.	.
24ccnLL	4e]	.	.	.
24g#X	.	.	.	.
24an	.	.	.	.
24cc	.	.	.	.
24cc-X	.	.	.	.
24b-JJ	.	.	.	.
*v	*v	*v	*	*
=65	=65	=65
.	8qddn/	.
*^	*	*
*	*^	*	*
*	*	*^	*	*
8rc	24rEE	4.r	2.C\	[4.aan	.
.	24AnLL	.	.	.	.
.	[24B-JJ	.	.	.	.
24fLL	4B-]	.	.	.	.
24c#X	.	.	.	.	.
24dn	.	.	.	.	.
24f	.	.	.	.	.
24e-	.	.	.	.	.
24enJJ	.	.	.	.	.
8rc	24rEE	4.B-\	.	4aa]	.
.	24e-XLL	.	.	.	.
.	[24enJJ	.	.	.	.
24ddnLL	4e]	.	.	.	.
24cc#X	.	.	.	.	.
24dd	.	.	.	.	.
24dd-X	.	.	.	8ggn	.
24.ccn	.	.	.	.	.
48ccJJk	.	.	.	.	.
*	*	*v	*v	*	*
=66	=66	=66	=66	=66
8rc	24rEE	8FF/ 8C 8An	16f 16cc 16ff	.
.	24enLL	.	.	.
.	.	.	16r	.
.	[24fJJ	.	.	.
24b-LL	4c 4f]	8FF/L 8F	4r	.
24gn	.	.	.	.
24g#X	.	.	.	.
24b-	.	8EE-X/J 8E-X	.	.
24g#	.	.	.	.
24anJJ	.	.	.	.
8rc	24rEE	8DDn/L 8Dn	8r	.
.	24BnLL	.	.	.
.	[24cJJ	.	.	.
24gnLL	4c]	8AAn/ 8A	8eenL	.
24en	.	.	.	.
[24g	.	.	.	.
24g]	.	8DD/J 8D	8ddnJ	.
24f	.	.	.	.
24f#XJJ	.	.	.	.
*	*v	*v	*	*
=67	=67	=67	=67
24d-XLL 24g-X	8BBB-L 8BB-	8dd-XL	.
24F	.	.	.
24G-X	.	.	.
24e-	8GG- 8G-	8b-	.
24Bn	.	.	.
24c	.	.	.
24e-	8BBB-J 8D-	8g-J	.
24e--	.	.	.
24d-JJ	.	.	.
24rc	8CCL 8C	16fLL	.
24F#XLL	.	.	.
.	.	16enJJ	.
24Gn	.	.	.
24c	8EEn 8En	[8an	.
24An	.	.	.
[24c	.	.	.
24c]	8CCJ 8C	12a]	.
24B	.	.	.
24B-XJJ	.	24gn	.
=68	=68	=68	=68
*	*^	*	*
8rc	24rEE	4.EE#X/	4.r	.
.	24DnLL	.	.	.
.	[24E-XJJ	.	.	.
24BnLL	4E-]	.	.	.
24F##X	.	.	.	.
24G#X	.	.	.	.
24B	.	.	.	.
24B-X	.	.	.	.
24AnJJ	.	.	.	.
8rc	24rEE	4.E#X\	4cc#X	.
.	24G#LL	.	.	.
.	[24AJJ	.	.	.
24enLL	4A]	.	.	.
24d#X	.	.	.	.
24e	.	.	.	.
24d#	.	.	8cc#	.
24an	.	.	.	.
24e-XJJ	.	.	.	.
=69	=69	=69	=69	=69
.	.	.	16qqan/LL	.
.	.	.	16qqcc#X/JJ	.
8rc	24rEE	4.FF#X/	4.aan	.
.	24DnLL	.	.	.
.	[24E-XJJ	.	.	.
24d#XLL	4E-]	.	.	.
24Bn	.	.	.	.
24B#X	.	.	.	.
24d#	.	.	.	.
24dn	.	.	.	.
24c#XJJ	.	.	.	.
8rc	24rEE	4.F#X\	[4cc#	.
.	24G#XLL	.	.	.
.	[24AnJJ	.	.	.
24enLL	4A]	.	.	.
24d#X	.	.	.	.
24e	.	.	.	.
24e-X	.	.	12cc#]	.
24an	.	.	.	.
24dnJJ	.	.	24ddn	.
=70	=70	=70	=70	=70
8rc	24rEE	4.FF##X/	4.ffn	.
.	24EnLL	.	.	.
.	[24FnJJ	.	.	.
24c#XLL	4F]	.	.	.
24G##X	.	.	.	.
24A#X	.	.	.	.
24c#	.	.	.	.
24cn	.	.	.	.
24BnJJ	.	.	.	.
8rc	24rEE	4.F##X\	4ddn	.
.	24A#LL	.	.	.
.	[24BJJ	.	.	.
24f#XLL	4B]	.	.	.
24e#X	.	.	.	.
24f#	.	.	.	.
24e#	.	.	8dd#X	.
24bn	.	.	.	.
24fnJJ	.	.	.	.
=71	=71	=71	=71	=71
.	.	.	16qqbn/LL	.
.	.	.	16qqdd#X/JJ	.
8rc	24rEE	4.GG#X/	4.bbn	.
.	24EnLL	.	.	.
.	[24E#XJJ	.	.	.
24e#XLL	4E#]	.	.	.
24c#X	.	.	.	.
24c##X	.	.	.	.
24e#	.	.	.	.
24en	.	.	.	.
24d#XJJ	.	.	.	.
8rc	24rEE	4.G#X\	[4dd#	.
.	24A#XLL	.	.	.
.	[24BnJJ	.	.	.
24f#XLL	4B]	.	.	.
24e#X	.	.	.	.
24f#	.	.	.	.
24fn	.	.	12dd#]	.
24bn	.	.	.	.
24enJJ	.	.	24een	.
=72	=72	=72	=72	=72
8rc	24rEE	4.GG#X/	4.ff#X	.
.	24D#XLL	.	.	.
.	[24EnJJ	.	.	.
24dnLL	4E]	.	.	.
24c#X	.	.	.	.
24A#X	.	.	.	.
24c#	.	.	.	.
24cn	.	.	.	.
24BnJJ	.	.	.	.
8rc	24rEE	4.E\	8.a#XL	.
.	24c#XLL	.	.	.
.	[24dJJ	.	.	.
24anLL	4d]	.	.	.
24e#X	.	.	.	.
.	.	.	16bnk	.
24f#X	.	.	.	.
24a	.	.	8b#XJ	.
24gn	.	.	.	.
24g#XJJ	.	.	.	.
=73	=73	=73	=73	=73
8rc	24rEE	4.AAn/ 4.En	[4.cc#X	.
.	24B#XLL	.	.	.
.	[24c#XJJ	.	.	.
24anLL	4c#]	.	.	.
24e#X	.	.	.	.
24f#X	.	.	.	.
24a	.	.	.	.
24gn	.	.	.	.
24g#XJJ	.	.	.	.
8rc	24rEE	4.EE-/ 4.E-X	8cc#L]	.
.	24cnLL	.	.	.
.	[24d-XJJ	.	.	.
24a-XLL	4d-]	.	8.cccn	.
24en	.	.	.	.
24fn	.	.	.	.
24a-	.	.	.	.
24g-X	.	.	.	.
.	.	.	16bb-XJk	.
24gnJJ	.	.	.	.
=74	=74	=74	=74	=74
.	.	.	8qb-/	.
8rc	24rEE	4.AA-/ 4.E-	8aa-L	.
.	24cLL	.	.	.
.	[24d-JJ	.	.	.
24g-XLL	4d-]	.	8.gg-	.
24en	.	.	.	.
24f	.	.	.	.
24a-	.	.	.	.
24gn	.	.	.	.
.	.	.	16bb-Jk	.
24g-XJJ	.	.	.	.
8rc	24rEE	4.AA-/	[4.ff	.
.	24FLL	.	.	.
.	[24G-JJ	.	.	.
24e-XLL	4G-]	.	.	.
24Bn	.	.	.	.
24c	.	.	.	.
24e-	.	.	.	.
24e--	.	.	.	.
24d-JJ	.	.	.	.
=75	=75	=75	=75	=75
*	*	*^	*	*
8rc	24rEE	4.r	2.AA-/	4.ff_	.
.	24FLL	.	.	.	.
.	[24G-JJ	.	.	.	.
24d-LL	4G-]	.	.	.	.
24An	.	.	.	.	.
24B-	.	.	.	.	.
24d-	.	.	.	.	.
24c-X	.	.	.	.	.
24cnJJ	.	.	.	.	.
8rc	24rEE	4.G-\	.	4ff]	.
.	24c-XLL	.	.	.	.
.	[24cnJJ	.	.	.	.
24b-LL	4c]	.	.	.	.
24an	.	.	.	.	.
24b-	.	.	.	.	.
24b--	.	.	.	8ee-	.
24a-X	.	.	.	.	.
24a-JJ	.	.	.	.	.
=76	=76	=76	=76	=76	=76
8rc	24rEE	4.r	2.DD-/	4.d- 4.dd-	.
.	24GGnLL	.	.	.	.
.	[24AA-JJ	.	.	.	.
24G-XLL	4AA-]	.	.	.	.
24Dn	.	.	.	.	.
24E-	.	.	.	.	.
24G-	.	.	.	.	.
24En	.	.	.	.	.
24FJJ	.	.	.	.	.
8rc	24rEE	4.AA-/	.	4f	.
.	24CLL	.	.	.	.
.	[24D-XJJ	.	.	.	.
24B-LL	4D-]	.	.	.	.
24G-X	.	.	.	.	.
24Gn	.	.	.	.	.
24B-	.	.	.	8f	.
24B--	.	.	.	.	.
24A-JJ	.	.	.	.	.
=77	=77	=77	=77	=77	=77
8rc	24rEE	4.r	2.DD-/	4.dd-	.
.	24FFLL	.	.	.	.
.	[24GG-JJ	.	.	.	.
24G-LL	4GG-]	.	.	.	.
24Dn	.	.	.	.	.
24E-	.	.	.	.	.
24G-	.	.	.	.	.
24En	.	.	.	.	.
24FJJ	.	.	.	.	.
8rc	24rEE	4.GG-/	.	4f	.
.	24ELL	.	.	.	.
.	[24FJJ	.	.	.	.
24cLL	8FL]	.	.	.	.
24Gn	.	.	.	.	.
24A-	.	.	.	.	.
24c	8E-XJ	.	.	8g-	.
24c-X	.	.	.	.	.
24B-JJ	.	.	.	.	.
=78	=78	=78	=78	=78	=78
8rc	24rEE	4.r	2.DD-/	4.B- 4.b-	.
.	24FFLL	.	.	.	.
.	[24GG-JJ	.	.	.	.
24FLL	4GG-]	.	.	.	.
24C	.	.	.	.	.
24D-	.	.	.	.	.
24F	.	.	.	.	.
24F-X	.	.	.	.	.
24E-JJ	.	.	.	.	.
8rc	24rEE	4.GG-/	.	4.B-	.
.	24DnLL	.	.	.	.
.	[24E-JJ	.	.	.	.
24e-LL	4E-]	.	.	.	.
24Bn	.	.	.	.	.
24c	.	.	.	.	.
24e-	.	.	.	.	.
24e--	.	.	.	.	.
24d-XJJ	.	.	.	.	.
=79	=79	=79	=79	=79	=79
8rc	24rEE	4.r	2.DD-/	[4.f	.
.	24GGnLL	.	.	.	.
.	[24AA-JJ	.	.	.	.
24A-LL	4AA-]	.	.	.	.
24En	.	.	.	.	.
24F	.	.	.	.	.
24A-	.	.	.	.	.
24Gn	.	.	.	.	.
24G-XJJ	.	.	.	.	.
8rc	24rEE	4.AA-/	.	4f]	.
.	24FLL	.	.	.	.
.	[24G-JJ	.	.	.	.
24d-LL	4G-]	.	.	.	.
24An	.	.	.	.	.
24B-	.	.	.	.	.
24d-	.	.	.	8e-	.
24c-X	.	.	.	.	.
24cnJJ	.	.	.	.	.
*	*	*v	*v	*	*
=80	=80	=80	=80	=80
24rc	4.AA-	2.DD-/	8r	.
24EnLL	.	.	.	.
[24FJJ	.	.	.	.
4F]	.	.	24e-XLL	.
.	.	.	24c-X	.
.	.	.	24cn	.
.	.	.	24e-	.
.	.	.	24e--	.
.	.	.	24d-JJ	.
24rc	4.D-	.	8r	.
24GnLL	.	.	.	.
[24A-JJ	.	.	.	.
4A-]	.	.	24g-XLL	.
.	.	.	24e-X	.
.	.	.	24en	.
.	.	.	24g-	.
.	.	.	24e	.
.	.	.	24fJJ	.
=81	=81	=81	=81	=81
24rc	4.AA- 4.F	2.DD-/	8r	.
24cLL	.	.	.	.
[24d-JJ	.	.	.	.
4d-]	.	.	24b-LL	.
.	.	.	24g-	.
.	.	.	24gn	.
.	.	.	24b-	.
.	.	.	24g	.
.	.	.	24a-JJ	.
4.rc	4.AA- 4.A-	.	24r	.
.	.	.	24enLL	.
.	.	.	24f	.
.	.	.	24ee-X	.
.	.	.	24cc-X	.
.	.	.	24ccn	.
.	.	.	24ee-	.
.	.	.	24cc	.
.	.	.	24dd-JJ	.
*v	*v	*v	*	*
=82	=82	=82
2.DD- 2.AA- 2.F	2.d- 2.a- 2.ff	.
==	==	==
*-	*-	*-
!!!system-decoration: {(*)}
!!!ENC: Bryan Jacob Bell
!!!END: November 2021 to April 2022
!!!PED: Konstantin Igumnov and Yakov Milstein
!!!PTL: A.N. Skryabin: Polnoe sobranie sochinenii dlia fortepiano (Muzgiz)
